X: 2459
T: Balls To Hall
R: jig
M: 6/8
K: Eminor
|:GEE AEE|BEE cBA|BcB B2A|FAF DEF|
GEE AEE|BEE cBA|BcB B2A|1 GED E2F:|2 GED E2A||
K:Emaj
BcB e2f|g2g gfe|c2a ~a2g|fgf fec|
~B3 e2f|g2g g2a|b2e a2a|g2g fec|
~B3 e2f|g2g gfe|c2a ~a2g|fgf fec|
~B3 e2f|~g3 ~g3|aef =dAB|F3 =DEF||

